;FLAVOR:Marlin
;TIME:3042
;Filament used: 3.4008m
;Layer height: 0.2
;MINX:38.167
;MINY:86.51
;MINZ:0.3
;MAXX:138.614
;MAXY:106.819
;MAXZ:43.9
;Generated with Cura_SteamEngine 4.2.1
M140 S50
M105
M190 S50
M104 S220
M105
M109 S220
M82 ;absolute extrusion mode
;(**** start.gcode for Ultimate2 (150S)****)
M104 S150
G28 ; Home extruder
G92 X200 Y150 Z165 ;set start position of axes
G29
G1 Z15 F100
M107 ; Turn off fan
G90 ; Absolute positioning
M82 ; Extruder in absolute mode
M109 S225 ;set extruder temperature
G92 E0 ; Reset extruder position
G1 X140 Y7 Z0.27 F4000
G1 X40 Y7 Z0.27 E23 F1000
G92 E0
M141 S28
G92 E0
G92 E0
G1 F1500 E-6.5
;LAYER_COUNT:219
;LAYER:0
M107
G0 F1200 X43.359 Y87.803 Z0.3
;TYPE:SKIRT
G1 F1500 E0
G1 F1200 X44.323 Y87.327 E0.0708
G1 X44.602 Y87.213 E0.09065
G1 X45.626 Y86.875 E0.16166
G1 X45.883 Y86.807 E0.17917
G1 X46.856 Y86.614 E0.2445
G1 X47.139 Y86.577 E0.26329
G1 X48.195 Y86.51 E0.33298
G1 X48.457 Y86.51 E0.35023
G1 X49.354 Y86.562 E0.4094
G1 X49.633 Y86.596 E0.42791
G1 X50.793 Y86.817 E0.50568
G1 X51.088 Y86.895 E0.52577
G1 X52.115 Y87.246 E0.59724
G1 X52.378 Y87.356 E0.61602
G1 X53.299 Y87.814 E0.68376
G1 X53.544 Y87.957 E0.70244
G1 X54.411 Y88.541 E0.77128
G1 X54.637 Y88.716 E0.7901
G1 X55.442 Y89.43 E0.86096
G1 X55.635 Y89.624 E0.87899
G1 X56.302 Y90.387 E0.94573
G1 X56.475 Y90.613 E0.96447
G1 X56.943 Y91.317 E1.02014
G1 X56.985 Y91.383 E1.02529
G1 X57.101 Y91.572 E1.0399
G1 X57.202 Y91.757 E1.05378
G1 X57.655 Y92.688 E1.12196
G1 X57.761 Y92.947 E1.14039
G1 X57.948 Y93.505 E1.17915
G1 X59.796 Y93.505 E1.30085
G1 X60.209 Y93.545 E1.32817
G1 X60.607 Y93.663 E1.35551
G1 X60.975 Y93.855 E1.38284
G1 X61.3 Y94.114 E1.41021
G1 X61.303 Y94.117 E1.41049
G1 X61.598 Y93.874 E1.43566
G1 X61.963 Y93.676 E1.46301
G1 X62.359 Y93.551 E1.49035
G1 X62.805 Y93.505 E1.51988
G1 X75.822 Y93.505 E2.37712
G1 X76.235 Y93.545 E2.40444
G1 X76.633 Y93.663 E2.43178
G1 X77.001 Y93.855 E2.45912
G1 X77.335 Y94.125 E2.4874
G1 X77.5 Y93.967 E2.50244
G1 X77.849 Y93.743 E2.52975
G1 X78.235 Y93.59 E2.5571
G1 X78.835 Y93.505 E2.59701
G1 X118.796 Y93.505 E5.22864
G1 X119.209 Y93.545 E5.25597
G1 X119.607 Y93.663 E5.2833
G1 X119.975 Y93.855 E5.31064
G1 X120.3 Y94.114 E5.33801
G1 X120.303 Y94.117 E5.33829
G1 X120.598 Y93.874 E5.36346
G1 X120.963 Y93.676 E5.3908
G1 X121.359 Y93.551 E5.41815
G1 X121.805 Y93.505 E5.44768
G1 X134.822 Y93.505 E6.30491
G1 X135.235 Y93.545 E6.33224
G1 X135.633 Y93.663 E6.35957
G1 X136.001 Y93.855 E6.38691
G1 X136.344 Y94.132 E6.41594
G1 X136.485 Y94.272 E6.42903
G1 X136.75 Y94.592 E6.45639
G1 X136.949 Y94.956 E6.48371
G1 X137.075 Y95.352 E6.51108
G1 X137.123 Y95.804 E6.54101
G1 X137.124 Y97.523 E6.65422
G1 X137.084 Y97.936 E6.68154
G1 X136.966 Y98.334 E6.70888
G1 X136.774 Y98.702 E6.73621
G1 X136.491 Y99.051 E6.7658
G1 X136.35 Y99.192 E6.77894
G1 X136.03 Y99.456 E6.80626
G1 X135.665 Y99.654 E6.8336
G1 X135.269 Y99.779 E6.86095
G1 X134.823 Y99.825 E6.89048
G1 X121.806 Y99.825 E7.74771
G1 X121.393 Y99.785 E7.77504
G1 X120.995 Y99.667 E7.80237
G1 X120.627 Y99.475 E7.82971
G1 X120.284 Y99.198 E7.85874
G1 X120.143 Y99.058 E7.87183
G1 X119.906 Y98.771 E7.89634
G1 X119.485 Y99.192 E7.93555
G1 X119.165 Y99.456 E7.96287
G1 X118.8 Y99.654 E7.99022
G1 X118.404 Y99.779 E8.01756
G1 X117.958 Y99.825 E8.04709
G1 X78.832 Y99.825 E10.62373
G1 X78.419 Y99.785 E10.65106
G1 X78.021 Y99.667 E10.6784
G1 X77.653 Y99.475 E10.70573
G1 X77.328 Y99.216 E10.7331
G1 X77.325 Y99.213 E10.73338
G1 X77.03 Y99.456 E10.75855
G1 X76.665 Y99.654 E10.7859
G1 X76.269 Y99.779 E10.81324
G1 X75.823 Y99.825 E10.84277
G1 X62.806 Y99.825 E11.70001
G1 X62.393 Y99.785 E11.72733
G1 X61.995 Y99.667 E11.75467
G1 X61.627 Y99.475 E11.782
G1 X61.293 Y99.205 E11.81029
G1 X61.128 Y99.363 E11.82533
G1 X60.779 Y99.587 E11.85264
G1 X60.393 Y99.74 E11.87999
G1 X59.793 Y99.825 E11.91989
G1 X57.962 Y99.825 E12.04047
G1 X57.787 Y100.342 E12.07642
G1 X57.682 Y100.597 E12.09458
G1 X57.2 Y101.584 E12.16692
G1 X57.057 Y101.834 E12.18588
G1 X56.482 Y102.697 E12.25418
G1 X56.296 Y102.937 E12.27417
G1 X55.544 Y103.78 E12.34857
G1 X55.369 Y103.954 E12.36482
G1 X54.641 Y104.603 E12.42905
G1 X54.418 Y104.778 E12.44771
G1 X53.526 Y105.384 E12.51873
G1 X53.275 Y105.53 E12.53785
G1 X52.418 Y105.957 E12.60091
G1 X52.155 Y106.068 E12.61971
G1 X51.127 Y106.42 E12.69126
G1 X50.859 Y106.492 E12.70954
G1 X49.849 Y106.698 E12.77742
G1 X49.63 Y106.731 E12.79201
G1 X49.348 Y106.759 E12.81067
G1 X49.299 Y106.764 E12.81391
G1 X48.617 Y106.816 E12.85896
G1 X48.334 Y106.819 E12.8776
G1 X47.19 Y106.756 E12.95305
G1 X46.892 Y106.718 E12.97283
G1 X45.84 Y106.511 E13.04344
G1 X45.579 Y106.443 E13.0612
G1 X44.626 Y106.128 E13.1273
G1 X44.389 Y106.034 E13.14409
G1 X44.188 Y105.94 E13.1587
G1 X44.167 Y105.93 E13.16024
G1 X43.412 Y105.567 E13.2154
G1 X43.148 Y105.416 E13.23543
G1 X42.258 Y104.821 E13.30594
G1 X42.04 Y104.654 E13.32402
G1 X41.26 Y103.975 E13.39212
G1 X41.049 Y103.764 E13.41177
G1 X40.344 Y102.954 E13.48249
G1 X40.179 Y102.739 E13.50034
G1 X39.597 Y101.871 E13.56916
G1 X39.455 Y101.625 E13.58787
G1 X39.03 Y100.765 E13.65104
G1 X38.927 Y100.522 E13.66842
G1 X38.561 Y99.477 E13.74134
G1 X38.484 Y99.199 E13.76034
G1 X38.274 Y98.179 E13.82892
G1 X38.234 Y97.881 E13.84872
G1 X38.167 Y96.832 E13.91794
G1 X38.168 Y96.553 E13.93632
G1 X38.246 Y95.36 E14.01505
G1 X38.286 Y95.064 E14.03472
G1 X38.47 Y94.174 E14.09457
G1 X38.539 Y93.918 E14.11203
G1 X38.881 Y92.908 E14.18225
G1 X38.99 Y92.646 E14.20094
G1 X39.477 Y91.658 E14.27348
G1 X39.622 Y91.407 E14.29257
G1 X40.167 Y90.597 E14.35686
G1 X40.341 Y90.372 E14.37559
G1 X41.072 Y89.545 E14.44828
G1 X41.266 Y89.351 E14.46635
G1 X42.026 Y88.685 E14.5329
G1 X42.261 Y88.506 E14.55235
G1 X43.126 Y87.936 E14.62057
G1 X43.359 Y87.803 E14.63824
G0 X43.571 Y88.234
G1 X44.535 Y87.758 E14.70904
G1 X44.752 Y87.669 E14.72449
G1 X45.776 Y87.331 E14.7955
G1 X45.976 Y87.278 E14.80913
G1 X46.949 Y87.085 E14.87445
G1 X47.17 Y87.056 E14.88913
G1 X48.226 Y86.989 E14.95882
G1 X48.429 Y86.989 E14.97218
G1 X49.326 Y87.041 E15.03136
G1 X49.543 Y87.068 E15.04576
G1 X50.703 Y87.289 E15.12352
G1 X50.932 Y87.349 E15.13911
G1 X51.959 Y87.7 E15.21059
G1 X52.164 Y87.786 E15.22523
G1 X53.085 Y88.244 E15.29296
G1 X53.276 Y88.355 E15.30751
G1 X54.143 Y88.939 E15.37635
G1 X54.319 Y89.075 E15.391
G1 X55.124 Y89.789 E15.46186
G1 X55.274 Y89.94 E15.47588
G1 X55.941 Y90.703 E15.54262
G1 X56.075 Y90.879 E15.55719
G1 X56.543 Y91.583 E15.61286
G1 X56.576 Y91.634 E15.61686
G1 X56.692 Y91.823 E15.63146
G1 X56.771 Y91.967 E15.64228
G1 X57.224 Y92.898 E15.71046
G1 X57.306 Y93.1 E15.72482
G1 X57.602 Y93.985 E15.78628
G1 X59.796 Y93.985 E15.93076
G1 X60.16 Y94.025 E15.95488
G1 X60.506 Y94.143 E15.97895
G1 X60.819 Y94.333 E16.00306
G1 X61.084 Y94.586 E16.02719
G1 X61.276 Y94.874 E16.04999
G1 X61.331 Y94.783 E16.05699
G1 X61.476 Y94.618 E16.07145
G1 X61.617 Y94.477 E16.08459
G1 X61.903 Y94.248 E16.10871
G1 X62.231 Y94.086 E16.13281
G1 X62.587 Y93.999 E16.15694
G1 X62.805 Y93.985 E16.17133
G1 X75.822 Y93.985 E17.02856
G1 X76.186 Y94.025 E17.05268
G1 X76.532 Y94.143 E17.07675
G1 X76.845 Y94.333 E17.10087
G1 X77.006 Y94.473 E17.11492
G1 X77.147 Y94.613 E17.128
G1 X77.361 Y94.879 E17.15048
G1 X77.445 Y94.721 E17.16227
G1 X77.683 Y94.442 E17.18642
G1 X77.975 Y94.222 E17.2105
G1 X78.308 Y94.07 E17.2346
G1 X78.835 Y93.985 E17.26976
G1 X118.796 Y93.985 E19.90139
G1 X119.16 Y94.025 E19.92551
G1 X119.506 Y94.143 E19.94958
G1 X119.819 Y94.333 E19.97369
G1 X120.084 Y94.586 E19.99782
G1 X120.276 Y94.874 E20.02062
G1 X120.331 Y94.783 E20.02762
G1 X120.476 Y94.618 E20.04208
G1 X120.617 Y94.477 E20.05522
G1 X120.903 Y94.248 E20.07934
G1 X121.231 Y94.086 E20.10344
G1 X121.587 Y93.999 E20.12757
G1 X121.805 Y93.985 E20.14196
G1 X134.822 Y93.985 E20.99919
G1 X135.186 Y94.025 E21.02331
G1 X135.532 Y94.143 E21.04738
G1 X135.845 Y94.333 E21.07149
G1 X136.006 Y94.473 E21.08554
G1 X136.147 Y94.613 E21.09863
G1 X136.377 Y94.898 E21.12275
G1 X136.54 Y95.225 E21.14681
G1 X136.628 Y95.581 E21.17096
G1 X136.643 Y95.804 E21.18568
G1 X136.644 Y97.523 E21.29888
G1 X136.604 Y97.887 E21.323
G1 X136.487 Y98.234 E21.34711
G1 X136.297 Y98.547 E21.37123
G1 X136.152 Y98.712 E21.38569
G1 X136.011 Y98.853 E21.39883
G1 X135.725 Y99.082 E21.42295
G1 X135.397 Y99.244 E21.44704
G1 X135.041 Y99.331 E21.47118
G1 X134.823 Y99.345 E21.48557
G1 X121.806 Y99.345 E22.3428
G1 X121.442 Y99.305 E22.36692
G1 X121.096 Y99.187 E22.39099
G1 X120.783 Y98.997 E22.4151
G1 X120.622 Y98.857 E22.42915
G1 X120.481 Y98.717 E22.44224
G1 X120.251 Y98.432 E22.46636
G1 X120.088 Y98.105 E22.49042
G1 X120.054 Y97.968 E22.49972
G1 X119.852 Y98.175 E22.51876
G1 X119.77 Y98.229 E22.52523
G1 X119.146 Y98.853 E22.58334
G1 X118.86 Y99.082 E22.60747
G1 X118.532 Y99.244 E22.63156
G1 X118.176 Y99.331 E22.6557
G1 X117.958 Y99.345 E22.67008
G1 X78.832 Y99.345 E25.24673
G1 X78.468 Y99.305 E25.27084
G1 X78.122 Y99.187 E25.29492
G1 X77.809 Y98.997 E25.31903
G1 X77.544 Y98.744 E25.34316
G1 X77.352 Y98.456 E25.36595
G1 X77.297 Y98.547 E25.37296
G1 X77.152 Y98.712 E25.38742
G1 X77.011 Y98.853 E25.40055
G1 X76.725 Y99.082 E25.42468
G1 X76.397 Y99.244 E25.44877
G1 X76.041 Y99.331 E25.47291
G1 X75.823 Y99.345 E25.48729
G1 X62.806 Y99.345 E26.34453
G1 X62.442 Y99.305 E26.36865
G1 X62.096 Y99.187 E26.39272
G1 X61.783 Y98.997 E26.41683
G1 X61.622 Y98.857 E26.43088
G1 X61.481 Y98.717 E26.44397
G1 X61.267 Y98.451 E26.46645
G1 X61.183 Y98.609 E26.47824
G1 X60.945 Y98.888 E26.50239
G1 X60.653 Y99.108 E26.52646
G1 X60.32 Y99.26 E26.55057
G1 X59.793 Y99.345 E26.58572
G1 X57.618 Y99.345 E26.72896
G1 X57.332 Y100.188 E26.78758
G1 X57.251 Y100.386 E26.80167
G1 X56.769 Y101.373 E26.87401
G1 X56.657 Y101.568 E26.88881
G1 X56.082 Y102.431 E26.95711
G1 X55.938 Y102.617 E26.9726
G1 X55.186 Y103.46 E27.04699
G1 X55.05 Y103.596 E27.05966
G1 X54.322 Y104.245 E27.12389
G1 X54.148 Y104.381 E27.13843
G1 X53.256 Y104.987 E27.20945
G1 X53.061 Y105.101 E27.22432
G1 X52.204 Y105.528 E27.28738
G1 X51.999 Y105.613 E27.30199
G1 X50.971 Y105.965 E27.37355
G1 X50.763 Y106.022 E27.38775
G1 X49.753 Y106.228 E27.45564
G1 X49.583 Y106.254 E27.46696
G1 X49.301 Y106.282 E27.48562
G1 X49.263 Y106.285 E27.48813
G1 X48.581 Y106.337 E27.53318
G1 X48.361 Y106.339 E27.54767
G1 X47.217 Y106.276 E27.62312
G1 X46.985 Y106.247 E27.63852
G1 X45.933 Y106.04 E27.70912
G1 X45.73 Y105.987 E27.72294
G1 X44.777 Y105.672 E27.78904
G1 X44.592 Y105.599 E27.80214
G1 X44.391 Y105.505 E27.81675
G1 X44.375 Y105.497 E27.81793
G1 X43.62 Y105.134 E27.8731
G1 X43.414 Y105.017 E27.8887
G1 X42.524 Y104.422 E27.9592
G1 X42.355 Y104.292 E27.97324
G1 X41.575 Y103.613 E28.04135
G1 X41.411 Y103.449 E28.05662
G1 X40.706 Y102.639 E28.12734
G1 X40.578 Y102.472 E28.14119
G1 X39.996 Y101.604 E28.21002
G1 X39.885 Y101.412 E28.22462
G1 X39.46 Y100.552 E28.2878
G1 X39.38 Y100.363 E28.30131
G1 X39.014 Y99.318 E28.37423
G1 X38.955 Y99.102 E28.38897
G1 X38.745 Y98.082 E28.45755
G1 X38.713 Y97.85 E28.47298
G1 X38.646 Y96.801 E28.5422
G1 X38.647 Y96.584 E28.55649
G1 X38.725 Y95.391 E28.63522
G1 X38.756 Y95.161 E28.65051
G1 X38.94 Y94.271 E28.71036
G1 X38.994 Y94.072 E28.72394
G1 X39.336 Y93.062 E28.79416
G1 X39.42 Y92.858 E28.80869
G1 X39.907 Y91.87 E28.88123
G1 X40.02 Y91.675 E28.89607
G1 X40.565 Y90.865 E28.96036
G1 X40.7 Y90.69 E28.97492
G1 X41.431 Y89.863 E29.04761
G1 X41.583 Y89.712 E29.06172
G1 X42.343 Y89.046 E29.12827
G1 X42.526 Y88.907 E29.1434
G1 X43.391 Y88.337 E29.21162
G1 X43.571 Y88.234 E29.22528
G0 X43.784 Y88.664
G1 X44.748 Y88.188 E29.29608
G1 X44.903 Y88.124 E29.30712
G1 X45.927 Y87.786 E29.37814
G1 X46.07 Y87.749 E29.38786
G1 X47.043 Y87.556 E29.45319
G1 X47.2 Y87.535 E29.46362
G1 X48.256 Y87.468 E29.5333
G1 X48.401 Y87.468 E29.54285
G1 X49.298 Y87.52 E29.60202
G1 X49.454 Y87.539 E29.61237
G1 X50.614 Y87.76 E29.69014
G1 X50.777 Y87.803 E29.70124
G1 X51.804 Y88.154 E29.77271
G1 X51.95 Y88.216 E29.78316
G1 X52.871 Y88.674 E29.8509
G1 X53.007 Y88.753 E29.86126
G1 X53.874 Y89.337 E29.9301
G1 X54 Y89.434 E29.94057
G1 X54.805 Y90.148 E30.01143
G1 X54.912 Y90.256 E30.02144
G1 X55.579 Y91.019 E30.08818
G1 X55.675 Y91.145 E30.09861
G1 X56.143 Y91.849 E30.15429
G1 X56.167 Y91.885 E30.15714
G1 X56.283 Y92.074 E30.17174
G1 X56.339 Y92.177 E30.17946
G1 X56.792 Y93.108 E30.24764
G1 X56.851 Y93.252 E30.25789
G1 X57.257 Y94.465 E30.34213
G1 X59.796 Y94.465 E30.50934
G1 X60.103 Y94.505 E30.52972
G1 X60.389 Y94.622 E30.55007
G1 X60.636 Y94.808 E30.57044
G1 X60.827 Y95.051 E30.59079
G1 X60.95 Y95.335 E30.61117
G1 X60.996 Y95.672 E30.63357
G1 X60.985 Y97.496 E30.75369
G1 X60.991 Y97.595 E30.76023
G1 X60.969 Y97.903 E30.78056
G1 X60.869 Y98.196 E30.80095
G1 X60.698 Y98.453 E30.82128
G1 X60.466 Y98.658 E30.84167
G1 X60.19 Y98.797 E30.86202
G1 X59.793 Y98.865 E30.88854
G1 X57.274 Y98.865 E31.05443
G1 X56.878 Y100.034 E31.13571
G1 X56.819 Y100.176 E31.14584
G1 X56.337 Y101.163 E31.21817
G1 X56.258 Y101.301 E31.22865
G1 X55.683 Y102.164 E31.29694
G1 X55.579 Y102.298 E31.30811
G1 X54.827 Y103.141 E31.3825
G1 X54.731 Y103.238 E31.39149
G1 X54.003 Y103.887 E31.45572
G1 X53.878 Y103.984 E31.46614
G1 X52.986 Y104.59 E31.53716
G1 X52.847 Y104.671 E31.54775
G1 X51.99 Y105.098 E31.61081
G1 X51.844 Y105.159 E31.62123
G1 X50.816 Y105.511 E31.69278
G1 X50.667 Y105.552 E31.70296
G1 X49.657 Y105.758 E31.77084
G1 X49.536 Y105.776 E31.7789
G1 X49.254 Y105.804 E31.79756
G1 X49.226 Y105.807 E31.79942
G1 X48.544 Y105.859 E31.84446
G1 X48.387 Y105.86 E31.8548
G1 X47.243 Y105.797 E31.93025
G1 X47.077 Y105.776 E31.94127
G1 X46.025 Y105.569 E32.01188
G1 X45.88 Y105.531 E32.02175
G1 X44.927 Y105.216 E32.08785
G1 X44.796 Y105.164 E32.09713
G1 X44.595 Y105.07 E32.11174
G1 X44.583 Y105.064 E32.11263
G1 X43.828 Y104.701 E32.1678
G1 X43.681 Y104.618 E32.17891
G1 X42.791 Y104.023 E32.24942
G1 X42.67 Y103.93 E32.25947
G1 X41.89 Y103.251 E32.32757
G1 X41.773 Y103.134 E32.33847
G1 X41.068 Y102.324 E32.40918
G1 X40.976 Y102.204 E32.41914
G1 X40.394 Y101.336 E32.48796
G1 X40.315 Y101.2 E32.49832
G1 X39.89 Y100.34 E32.5615
G1 X39.833 Y100.205 E32.57115
G1 X39.467 Y99.16 E32.64406
G1 X39.425 Y99.005 E32.65464
G1 X39.215 Y97.985 E32.72322
G1 X39.192 Y97.819 E32.73426
G1 X39.125 Y96.77 E32.80348
G1 X39.126 Y96.616 E32.81362
G1 X39.204 Y95.423 E32.89235
G1 X39.226 Y95.258 E32.90332
G1 X39.41 Y94.368 E32.96317
G1 X39.448 Y94.226 E32.97285
G1 X39.79 Y93.216 E33.04307
G1 X39.851 Y93.07 E33.05349
G1 X40.338 Y92.082 E33.12603
G1 X40.418 Y91.943 E33.13659
G1 X40.963 Y91.133 E33.20089
G1 X41.06 Y91.008 E33.21131
G1 X41.791 Y90.181 E33.28399
G1 X41.899 Y90.073 E33.29405
G1 X42.659 Y89.407 E33.3606
G1 X42.79 Y89.308 E33.37141
G1 X43.655 Y88.738 E33.43963
G1 X43.784 Y88.664 E33.44943
G0 X43.996 Y89.094
G1 X44.96 Y88.618 E33.52023
G1 X45.053 Y88.58 E33.52685
G1 X46.077 Y88.242 E33.59786
G1 X46.163 Y88.22 E33.60371
G1 X47.136 Y88.027 E33.66903
G1 X47.23 Y88.014 E33.67528
G1 X48.286 Y87.947 E33.74496
G1 X48.374 Y87.947 E33.75076
G1 X49.271 Y87.999 E33.80993
G1 X49.364 Y88.011 E33.8161
G1 X50.524 Y88.232 E33.89387
G1 X50.622 Y88.258 E33.90055
G1 X51.649 Y88.609 E33.97202
G1 X51.737 Y88.645 E33.97828
G1 X52.658 Y89.103 E34.04602
G1 X52.739 Y89.151 E34.05222
G1 X53.606 Y89.735 E34.12106
G1 X53.682 Y89.793 E34.12736
G1 X54.487 Y90.507 E34.19822
G1 X54.551 Y90.572 E34.20423
G1 X55.218 Y91.335 E34.27097
G1 X55.276 Y91.41 E34.27721
G1 X55.744 Y92.114 E34.33288
G1 X55.758 Y92.136 E34.3346
G1 X55.874 Y92.325 E34.3492
G1 X55.907 Y92.387 E34.35383
G1 X56.36 Y93.318 E34.42201
G1 X56.396 Y93.404 E34.42815
G1 X56.912 Y94.945 E34.53517
G1 X59.796 Y94.945 E34.7251
